Papirus/16x16/mimetypes/text-x-java.svg

<svg xmlns="http://www.w3.org/2000/svg" xmlns:xlink="http://www.w3.org/1999/xlink" width="16" height="16" version="1.1" viewBox="0 0 16 16">
 <defs>
  <clipPath id="clip1">
   <rect width="16" height="16"/>
  </clipPath>
  <g id="surface210" clip-path="url(#clip1)">
   <path fill="#fff" fill-rule="evenodd" d="m7.0391 10.945s-0.2071 0.129 0.1484 0.172c0.4297 0.051 0.6484 0.047 1.1211-0.051 0 0 0.125 0.082 0.2969 0.157-1.0586 0.48-2.4024-0.028-1.5664-0.278z"/>
   <path fill="#fff" fill-rule="evenodd" d="m6.9102 10.316s-0.2344 0.184 0.121 0.223c0.4571 0.051 0.8204 0.055 1.4493-0.074 0 0 0.0859 0.094 0.2226 0.144-1.2851 0.399-2.7148 0.032-1.7929-0.293z"/>
   <path fill="#fff" fill-rule="evenodd" d="m8.0039 9.25c0.2617 0.3203-0.0703 0.6055-0.0703 0.6055s0.6641-0.3633 0.3594-0.8203c-0.2852-0.4219-0.5039-0.6329 0.6797-1.3594 0 0-1.8555 0.4883-0.9688 1.5742z"/>
   <path fill="#fff" fill-rule="evenodd" d="m9.4062 11.414s0.1524 0.133-0.1679 0.234c-0.6133 0.2-2.5508 0.258-3.0899 0.008-0.1914-0.086 0.168-0.211 0.2852-0.238s0.1836-0.023 0.1836-0.023c-0.2149-0.161-1.3906 0.316-0.5938 0.453 2.1641 0.371 3.9454-0.168 3.3828-0.434z"/>
   <path fill="#fff" fill-rule="evenodd" d="m7.1367 9.6641s-0.9844 0.25-0.3476 0.3399c0.2695 0.039 0.8047 0.027 1.3047-0.0157 0.4062-0.0352 0.8164-0.1133 0.8164-0.1133s-0.1446 0.0664-0.2461 0.141c-1.0039 0.277-2.9375 0.148-2.3789-0.1371 0.4687-0.2422 0.8515-0.2148 0.8515-0.2148z"/>
   <path fill="#fff" fill-rule="evenodd" d="m8.9062 10.711c1.0157-0.559 0.5469-1.0977 0.2188-1.0235-0.082 0.0156-0.1172 0.0313-0.1172 0.0313s0.0313-0.0508 0.086-0.0704c0.6523-0.2422 1.1522 0.7146-0.2071 1.0936 0 0 0.0156-0.015 0.0195-0.031z"/>
   <path fill="#fff" fill-rule="evenodd" d="m8.293 6.5s0.5625 0.5977-0.5352 1.5156c-0.8789 0.7383-0.1992 1.1602 0 1.6406-0.5156-0.4921-0.8906-0.9257-0.6367-1.3281 0.3711-0.5937 1.3984-0.8789 1.1719-1.8281z"/>
   <path fill="#fff" fill-rule="evenodd" d="m7.2383 12.23c0.9765 0.067 2.4765-0.035 2.5117-0.523 0 0-0.0664 0.184-0.8086 0.332-0.832 0.164-1.8594 0.145-2.4687 0.039 0 0 0.125 0.11 0.7656 0.152z"/>
  </g>
 </defs>
 <path fill="#e64a3a" d="m2.75 1c-0.4172 0-0.75 0.3328-0.75 0.75v13.5c0 0.417 0.3328 0.75 0.75 0.75h10.5c0.418 0 0.75-0.332 0.75-0.75v-9.25l-4.125-0.875-0.875-4.125z"/>
 <path fill="#f5857a" d="m9 1v4.1667c0 0.4584 0.3749 0.8333 0.8333 0.8333h4.1667z"/>
 <use width="100%" height="100%" x="0" y="0" transform="matrix(1.2499 0 0 1.3917 -2.0869 -3.0459)" xlink:href="#surface210"/>
</svg>

<svg xmlns="http://www.w3.org/2000/svg" width="16" height="16" version="1.1">
 <path fill="#e64a3a" d="m2.75 1c-0.4172 0-0.75 0.3328-0.75 0.75v13.5c0 0.417 0.3328 0.75 0.75 0.75h10.5c0.418 0 0.75-0.332 0.75-0.75v-9.25l-4.125-0.875-0.875-4.125z"/>
 <path fill="#f5857a" d="m9 1v4.1667c0 0.4584 0.3749 0.8333 0.8333 0.8333h4.1667z"/>
 <g style="fill:#ffffff">
  <path d="M 7.0391,10.945 C 7.0391,10.945 6.832,11.074 7.1875,11.117 7.6172,11.168 7.8359,11.164 8.3086,11.066 8.3086,11.066 8.4336,11.148 8.6055,11.223 7.5469,11.703 6.2031,11.195 7.0391,10.945 Z"/>
  <path d="M 6.9102,10.316 C 6.9102,10.316 6.6758,10.5 7.0312,10.539 7.4883,10.59 7.8516,10.594 8.4805,10.465 8.4805,10.465 8.5664,10.559 8.7031,10.609 7.418,11.008 5.9883,10.641 6.9102,10.316 Z"/>
  <path d="M 8.0039,9.25 C 8.2656,9.5703 7.9336,9.8555 7.9336,9.8555 7.9336,9.8555 8.5977,9.4922 8.293,9.0352 8.0078,8.6133 7.7891,8.4023 8.9727,7.6758 8.9727,7.6758 7.1172,8.1641 8.0039,9.25 Z"/>
  <path d="M 9.4062,11.414 C 9.4062,11.414 9.5586,11.547 9.2383,11.648 8.625,11.848 6.6875,11.906 6.1484,11.656 5.957,11.57 6.3164,11.445 6.4336,11.418 6.5508,11.391 6.6172,11.395 6.6172,11.395 6.4023,11.234 5.2266,11.711 6.0234,11.848 8.1875,12.219 9.9688,11.68 9.4062,11.414 Z"/>
  <path d="M 7.1367,9.6641 C 7.1367,9.6641 6.1523,9.9141 6.7891,10.004 7.0586,10.043 7.5938,10.031 8.0938,9.9883 8.5,9.9531 8.9102,9.875 8.9102,9.875 8.9102,9.875 8.7656,9.9414 8.6641,10.016 7.6602,10.293 5.7266,10.164 6.2852,9.8789 6.7539,9.6367 7.1367,9.6641 7.1367,9.6641 Z"/>
  <path d="M 8.9062,10.711 C 9.9219,10.152 9.4531,9.6133 9.125,9.6875 9.043,9.7031 9.0078,9.7188 9.0078,9.7188 9.0078,9.7188 9.0391,9.668 9.0938,9.6484 9.7461,9.4062 10.246,10.363 8.8867,10.742 8.8867,10.742 8.9023,10.727 8.9062,10.711 Z"/>
  <path d="M 8.293,6.5 C 8.293,6.5 8.8555,7.0977 7.7578,8.0156 6.8789,8.7539 7.5586,9.1758 7.7578,9.6562 7.2422,9.1641 6.8672,8.7305 7.1211,8.3281 7.4922,7.7344 8.5195,7.4492 8.293,6.5 Z"/>
  <path d="M 7.2383,12.23 C 8.2148,12.297 9.7148,12.195 9.75,11.707 9.75,11.707 9.6836,11.891 8.9414,12.039 8.1094,12.203 7.082,12.184 6.4727,12.078 6.4727,12.078 6.5977,12.188 7.2383,12.23 Z"/>
 </g>
</svg>
